src/images/logo-tiktok.svg

<svg fill="none" height="29" viewBox="0 0 25 29" width="25" xmlns="http://www.w3.org/2000/svg" xmlns:xlink="http://www.w3.org/1999/xlink"><clipPath id="a"><path d="m0 0h25v29h-25z"/></clipPath><g clip-path="url(#a)"><path d="m4.63773 18.7363c.16587-1.4439.71656-2.2544 1.75823-3.0785 1.49283-1.1169 3.35058-.4904 3.35058-.4904v-3.7663c.45116-.0136.90236.0205 1.35346.0886v4.8424s-1.8577-.6334-3.35054.4903c-1.04166.831-1.59235 1.6346-1.75822 3.0785-.00664.7832.13269 1.8116.763 2.6902-.15924-.0885-.31847-.1839-.47771-.2928-1.39331-.9944-1.64543-2.4996-1.6388-3.562zm14.15207-14.29572c-1.0218-1.19868-1.4132-2.4178-1.5525-3.26914h1.2871s-.2521 2.24072 1.6189 4.44058l.0265.02724c-.5108-.34053-.9753-.74917-1.38-1.19868zm6.2102 3.41216v4.74706s-1.6454-.0681-2.8662-.4018c-1.6986-.4632-2.7933-1.1783-2.7933-1.1783s-.7564-.5108-.8161-.5448v9.8074c0 .5448-.1393 1.907-.564 3.0444-.5506 1.4847-1.4132 2.4654-1.5724 2.663 0 0-1.0483 1.3212-2.8795 2.2134-1.6587.8037-3.1117.7833-3.54964.8037 0 0-2.5146.1022-4.78371-1.4711-.49097-.3474-.94878-.7424-1.36677-1.1783l.01327.0137c2.26911 1.58 4.7837 1.4711 4.7837 1.4711.4379-.0205 1.89095 0 3.54965-.8037 1.8378-.8854 2.8795-2.2135 2.8795-2.2135.1592-.1975 1.0151-1.1782 1.5724-2.663.4247-1.1373.564-2.4995.564-3.0443v-9.80746c.0597.03405.8161.54485.8161.54485s1.0881.71511 2.7932 1.17821c1.2209.3338 2.8663.4019 2.8663.4019v-3.71867c.5639.13621 1.0417.17027 1.3535.13621z" fill="#e5e5e5"/><g fill="#fff"><path d="m23.6465 7.70973v3.71867s-1.6454-.0681-2.8662-.4019c-1.6986-.4631-2.7933-1.17821-2.7933-1.17821s-.7564-.5108-.8161-.54486v9.80747c0 .5448-.1393 1.907-.564 3.0443-.5506 1.4848-1.4132 2.4655-1.5724 2.663 0 0-1.0483 1.3213-2.8795 2.2135-1.6587.8037-3.11174.7832-3.54964.8037 0 0-2.5146.1021-4.78371-1.4711l-.01327-.0069c-.23885-.2519-.46443-.5108-.67011-.7832-.7232-.9467-1.1611-2.0568-1.28052-2.3769v-.0068c-.17914-.5517-.55069-1.8866-.50425-3.167.09289-2.268.83599-3.6642 1.03503-4.0183.51752-.9535 1.2009-1.8049 2.00372-2.52.70992-.613 1.51937-1.1101 2.38853-1.4507.93551-.4086 1.944-.6197 2.95913-.6402v3.7663s-1.85775-.6334-3.35058.4904c-1.04167.8309-1.59236 1.6346-1.75823 3.0785-.00663 1.0624.24549 2.5676 1.6388 3.5688.16587.1089.32511.2111.47771.2928.24549.3338.53742.6334.87579.8786 1.36014.9195 2.5013.9876 3.9544.3882.9753-.4018 1.6985-1.3008 2.0435-2.302.2123-.6266.2123-1.2532.2123-1.9002v-18.49107h3.3904c.1393.85134.5241 2.07046 1.5525 3.26915.4114.4495.8758.85814 1.3801 1.19868.1459.17027.9089.98074 1.8909 1.48473.5109.26562 1.0483.46313 1.599.59254z"/><path d="m.510864 22.0463.086253.252c-.01327-.0341-.046444-.1226-.086253-.252z"/><path d="m6.78078 12.0413c-.86916.3406-1.67198.8378-2.38854 1.4507-.80945.7151-1.4862 1.5733-2.00371 2.5268-.19905.3473-.94215 1.7435-1.03504 4.0183-.05307 1.2872.32511 2.6153.50425 3.167v.0068c.11279.3133.55069 1.4302 1.28052 2.3769.21232.2725.4379.5313.67012.7833-.76964-.5449-1.44639-1.1987-2.03026-1.9479-.71656-.9331-1.16109-2.0432-1.273882-2.3701v-.0136c-.17914-.5517-.5573251-1.8866-.50424656-3.1738.09288746-2.268.83598756-3.6642 1.03502856-4.0184.51752-.9535 1.20091-1.8116 2.00372-2.5267.70992-.613 1.51937-1.1102 2.38853-1.4507.54406-.2316 1.10802-.4018 1.68525-.5108.86916-.1567 1.75822-.1703 2.63402-.0409v1.0761c-1.02176.0273-2.02362.2384-2.96576.647z"/><path d="m17.2372 1.16463h-3.3903v18.48427c0 .647 0 1.2736-.2124 1.9002-.345 1.0012-1.0748 1.9002-2.0435 2.302-1.4596.6062-2.60084.5312-3.95434-.3882-.33837-.2384-.63031-.5312-.8758-.8718 1.1611.6334 2.19613.6198 3.47664.0954.9753-.4019 1.6985-1.3077 2.0435-2.302.2123-.6266.2123-1.2532.2123-1.9002v-18.4843h4.6842c-.0132 0-.0597.456318.0597 1.16463zm6.4093 5.51668v1.02841c-.5507-.13621-1.0881-.33372-1.5857-.59253-.9754-.49718-1.7384-1.31447-1.891-1.48473.1725.11578.3517.21794.5375.3201 1.1876.61296 2.362.79685 2.9392.72875z"/></g></g></svg>

<svg width="25" height="29" viewBox="0 0 25 29" fill="none" xmlns="http://www.w3.org/2000/svg">
<g clip-path="url(#clip0)">
<path d="M4.63773 18.7363C4.8036 17.2924 5.35429 16.4819 6.39596 15.6578C7.88879 14.5409 9.74654 15.1674 9.74654 15.1674V11.4011C10.1977 11.3875 10.6489 11.4216 11.1 11.4897V16.3321C11.1 16.3321 9.2423 15.6987 7.74946 16.8224C6.7078 17.6534 6.15711 18.457 5.99124 19.9009C5.9846 20.6841 6.12393 21.7125 6.75424 22.5911C6.595 22.5026 6.43577 22.4072 6.27653 22.2983C4.88322 21.3039 4.6311 19.7987 4.63773 18.7363ZM18.7898 4.44058C17.768 3.2419 17.3766 2.02278 17.2373 1.17144H18.5244C18.5244 1.17144 18.2723 3.41216 20.1433 5.61202L20.1698 5.63926C19.659 5.29873 19.1945 4.89009 18.7898 4.44058ZM25 7.85274V12.5998C25 12.5998 23.3546 12.5317 22.1338 12.198C20.4352 11.7348 19.3405 11.0197 19.3405 11.0197C19.3405 11.0197 18.5841 10.5089 18.5244 10.4749V20.2823C18.5244 20.8271 18.3851 22.1893 17.9604 23.3267C17.4098 24.8114 16.5472 25.7921 16.388 25.9897C16.388 25.9897 15.3397 27.3109 13.5085 28.2031C11.8498 29.0068 10.3968 28.9864 9.95886 29.0068C9.95886 29.0068 7.44426 29.109 5.17515 27.5357C4.68418 27.1883 4.22637 26.7933 3.80838 26.3574L3.82165 26.3711C6.09076 27.9511 8.60535 27.8422 8.60535 27.8422C9.04325 27.8217 10.4963 27.8422 12.155 27.0385C13.9928 26.1531 15.0345 24.825 15.0345 24.825C15.1937 24.6275 16.0496 23.6468 16.6069 22.162C17.0316 21.0247 17.1709 19.6625 17.1709 19.1177V9.31024C17.2306 9.34429 17.987 9.85509 17.987 9.85509C17.987 9.85509 19.0751 10.5702 20.7802 11.0333C22.0011 11.3671 23.6465 11.4352 23.6465 11.4352V7.71653C24.2104 7.85274 24.6882 7.8868 25 7.85274Z" fill="#E5E5E5"/>
<path d="M23.6465 7.70973V11.4284C23.6465 11.4284 22.0011 11.3603 20.7803 11.0265C19.0817 10.5634 17.987 9.84829 17.987 9.84829C17.987 9.84829 17.2306 9.33749 17.1709 9.30343V19.1109C17.1709 19.6557 17.0316 21.0179 16.6069 22.1552C16.0563 23.64 15.1937 24.6207 15.0345 24.8182C15.0345 24.8182 13.9862 26.1395 12.155 27.0317C10.4963 27.8354 9.04326 27.8149 8.60536 27.8354C8.60536 27.8354 6.09076 27.9375 3.82165 26.3643L3.80838 26.3574C3.56953 26.1055 3.34395 25.8466 3.13827 25.5742C2.41507 24.6275 1.97717 23.5174 1.85775 23.1973V23.1905C1.67861 22.6388 1.30706 21.3039 1.3535 20.0235C1.44639 17.7555 2.18949 16.3593 2.38853 16.0052C2.90605 15.0517 3.58943 14.2003 4.39225 13.4852C5.10217 12.8722 5.91162 12.3751 6.78078 12.0345C7.71629 11.6259 8.72478 11.4148 9.73991 11.3943V15.1606C9.73991 15.1606 7.88216 14.5272 6.38933 15.651C5.34766 16.4819 4.79697 17.2856 4.6311 18.7295C4.62447 19.7919 4.87659 21.2971 6.2699 22.2983C6.43577 22.4072 6.59501 22.5094 6.74761 22.5911C6.9931 22.9249 7.28503 23.2245 7.6234 23.4697C8.98354 24.3892 10.1247 24.4573 11.5778 23.8579C12.5531 23.4561 13.2763 22.5571 13.6213 21.5559C13.8336 20.9293 13.8336 20.3027 13.8336 19.6557V1.16463H17.224C17.3633 2.01597 17.7481 3.23509 18.7765 4.43378C19.1879 4.88328 19.6523 5.29192 20.1566 5.63246C20.3025 5.80273 21.0655 6.6132 22.0475 7.11719C22.5584 7.38281 23.0958 7.58032 23.6465 7.70973Z" fill="white"/>
<path d="M0.510864 22.0463L0.597117 22.2983C0.583847 22.2642 0.550673 22.1757 0.510864 22.0463Z" fill="white"/>
<path d="M6.78078 12.0413C5.91162 12.3819 5.1088 12.8791 4.39224 13.492C3.58279 14.2071 2.90604 15.0653 2.38853 16.0188C2.18948 16.3661 1.44638 17.7623 1.35349 20.0371C1.30042 21.3243 1.6786 22.6524 1.85774 23.2041V23.2109C1.97053 23.5242 2.40843 24.6411 3.13826 25.5878C3.35058 25.8603 3.57616 26.1191 3.80838 26.3711C3.03874 25.8262 2.36199 25.1724 1.77812 24.4232C1.06156 23.4901 0.61703 22.38 0.504238 22.0531V22.0395C0.325098 21.4878 -0.0530871 20.1529 -8.56351e-06 18.8657C0.0928789 16.5977 0.835979 15.2015 1.03502 14.8473C1.55254 13.8938 2.23593 13.0357 3.03874 12.3206C3.74866 11.7076 4.55811 11.2104 5.42727 10.8699C5.97133 10.6383 6.53529 10.4681 7.11252 10.3591C7.98168 10.2024 8.87074 10.1888 9.74654 10.3182V11.3943C8.72478 11.4216 7.72292 11.6327 6.78078 12.0413Z" fill="white"/>
<path d="M17.2372 1.16463H13.8469V19.6489C13.8469 20.2959 13.8469 20.9225 13.6345 21.5491C13.2895 22.5503 12.5597 23.4493 11.591 23.8511C10.1314 24.4573 8.99016 24.3823 7.63666 23.4629C7.29829 23.2245 7.00635 22.9317 6.76086 22.5911C7.92196 23.2245 8.95699 23.2109 10.2375 22.6865C11.2128 22.2846 11.936 21.3788 12.281 20.3845C12.4933 19.7579 12.4933 19.1313 12.4933 18.4843V0H17.1775C17.1643 0 17.1178 0.456318 17.2372 1.16463ZM23.6465 6.68131V7.70972C23.0958 7.57351 22.5584 7.376 22.0608 7.11719C21.0854 6.62001 20.3224 5.80272 20.1698 5.63246C20.3423 5.74824 20.5215 5.8504 20.7073 5.95256C21.8949 6.56552 23.0693 6.74941 23.6465 6.68131Z" fill="white"/>
</g>
<defs>
<clipPath id="clip0">
<rect width="25" height="29" fill="white"/>
</clipPath>
</defs>
</svg>
